X:1
T:Diamond Bar, 99.99 D
T:Diamond Bar, 99.99 D
T:Charles Edward Prior, 1886
T:Public Domain Courtesy of the Cyber Hymnal™
C:Charles Edward Prior, 1886
Z:Public Domain
Z:Courtesy of the Cyber Hymnal™
%%score ( 1 2 ) ( 3 4 )
L:1/8
Q:1/4=82
M:6/8
K:Ab
V:1 treble 
V:2 treble 
V:3 bass 
V:4 bass 
V:1
 [Ec] | [DB]>[DF][DG] [CA]2 [CA] | [DA]2 [DF] [CE]2 [Ec] | [EB]2 E [EG][EA][EB] | %4
 [Ec]2 [EA] !fermata![EB]2 [Ec] | (B>F)[DG] [CA]2 [CA]/[CA]/ | [DA]2 [DF] [CE]2 [Ec] | %7
 ce[Fd] [Ec]2 [EA]/[EA]/ | (AB)[EG] [EA]2 [Ec] | [DB]>[DB][CA] [DG]2 [DF] | (FE)[A,C] [CE]2 [Ec] | %11
 [EB]>[EB][EA] [EG]2 [EB] | BF[_DG] E2 E | d>c[EB] [Ec]2 [Ec] | (!>!e>d)[Fc] [Fd]2 [Fd] | %15
 [Ed]>[Ec][EB] [Ee]2 [CA] | ([CA][Ec])[DB] [CA]2 |] %17
V:2
 x | x6 | x6 | x2 E x3 | x6 | D2 x4 | x6 | E2 x4 | E2 x4 | x6 | C2 x4 | x6 | =D2 E2 E x | E2 x4 | %14
 F2 x4 | x6 | x5 |] %17
V:3
 [A,,A,] | [E,G,]>[E,B,]E, [A,,E,]2 [A,,E,] | [D,F,]2 [D,A,] [A,,A,]2 [A,,A,] | %3
 [E,G,]2 [E,G,] [D,B,][C,A,][B,,G,] | [A,,A,]2 [C,A,] !fermata![E,G,]2 [E,A,] | %5
 (G,>B,)E, [A,,E,]2 [A,,E,]/[A,,E,]/ | [D,F,]2 [D,A,] [A,,A,]2 [A,,A,] | %7
 A,2 [D,A,] [E,A,]2 [E,C]/[E,C]/ | (CD)[E,D] [A,,C]2 [A,,A,] | [E,G,]>[E,G,][E,A,] [E,B,]2 [E,G,] | %10
 [A,,A,]2 [A,,E,] [A,,A,]2 [A,,A,] | [E,G,]>[E,G,][E,C] [E,B,]2 [E,G,] | %12
 (F,A,)[B,,B,] [E,G,]2 [E,G,] | B,>A,[E,G,] _A,2 [F,=A,] | (C>B,)[F,=A,] B,2 [B,,B,] | %15
 [E,B,]>[E,A,][E,G,] [C,A,]2 [F,A,] | [E,A,]2 [E,G,] [A,,A,]2 |] %17
V:4
 x | x2 E, x3 | x6 | x6 | x6 | E,2 E, x3 | x6 | A,,C, x4 | E,2 x4 | x6 | x6 | x6 | B,,2 x4 | %13
 E,2 =A,2 x2 | F,2 B,2 x2 | x6 | x5 |] %17

